X: 2055
T: Aspinwall
R: reel
M: 4/4
K: Gmajor
|:dc|BGFG DGFG|BGdB gdBd|cA^GA FAGA|cedc BcAc|
BGFG DGFG|BGdB gdBd|cedc BcAB|G2B2G2:|
|:dc|Bd^cd Bdcd|Bdef gdcB|ce^de cede|ceag fedc|
Bd^cd Bdcd|BGAB cdef|gdec BcAB|G2B2G2:|

